src/lib/packages/icons/src/assets/filled/bookmarks-plus.svg

<svg width="24" height="24" viewBox="0 0 24 24" fill="none" xmlns="http://www.w3.org/2000/svg">
<path d="M19.9971 4.56995V18L19.99 17.986V18L17.6411 16.656C17.5471 16.603 17.49 16.503 17.49 16.396C17.49 16.396 17.49 8.50495 17.49 8.47095C17.449 5.98395 15.9439 4.501 13.4299 4.5H8.21704C8.04304 4.5 7.9911 4.34805 8.0061 4.17505C8.1311 2.73105 8.98506 2 10.5601 2H17.4199H17.427C19.137 2 19.9971 2.85995 19.9971 4.56995ZM16 8.57104V22L10 18.572L4 22V8.57104C4 6.85705 4.85704 6 6.57104 6H13.428C15.143 6 16 6.85705 16 8.57104ZM12.75 12.5C12.75 12.086 12.414 11.75 12 11.75H10.75V10.5C10.75 10.086 10.414 9.75 10 9.75C9.586 9.75 9.25 10.086 9.25 10.5V11.75H8C7.586 11.75 7.25 12.086 7.25 12.5C7.25 12.914 7.586 13.25 8 13.25H9.25V14.5C9.25 14.914 9.586 15.25 10 15.25C10.414 15.25 10.75 14.914 10.75 14.5V13.25H12C12.414 13.25 12.75 12.914 12.75 12.5Z" fill="currentColor"/>
</svg>

<svg xmlns="http://www.w3.org/2000/svg" width="24" height="24" fill="none"><path fill="currentColor" d="M19.997 4.57V18l-.007-.014V18l-2.349-1.344a.298.298 0 0 1-.151-.26V8.471c-.041-2.487-1.546-3.97-4.06-3.971H8.217c-.174 0-.226-.152-.21-.325C8.13 2.731 8.984 2 10.56 2h6.867c1.71 0 2.57.86 2.57 2.57ZM16 8.57V22l-6-3.428L4 22V8.571C4 6.857 4.857 6 6.571 6h6.857C15.143 6 16 6.857 16 8.571Zm-3.25 3.93a.75.75 0 0 0-.75-.75h-1.25V10.5a.75.75 0 0 0-1.5 0v1.25H8a.75.75 0 0 0 0 1.5h1.25v1.25a.75.75 0 0 0 1.5 0v-1.25H12a.75.75 0 0 0 .75-.75Z"/></svg>
